X:1
T:Vals 
R:Vals
O:Kalvetorp, Östergötland
B:Ög 10
C:Karl Larsson
S:Gustav Andersson
N:Smus Ög 10 bild 3
M:3/4
L:1/8
K:G
(DG) |: B3 cBA | G2 D2 GG | B2 G2 BB | d2 Bd gg | 
f2 A2 B2 | c2 Aced | d2 GGGG |1 G4 DG :|2 G4 F2 | 
A3 BAG | F2 A2 d2 | f3 gfe | d2 F2 A2 | d3 edc | c2 EFGA | B3 cBB | A2 D2 F2 |
F2 A2 d2 | f3 gfe | d2 F2 A2 | d3 dcB | A2 f2 e2 | dedcde | d4 D2 :|: FA d2 d2 |
cd c2 c2 | EG B2 B2 | BA A2 A2 | df a2 a2 |
ag a2 a2 | a2 B2 c2 |1 d4 D2 :|2 d4 z2 :|

